packages/kaspersky-hexa-ui-icons/src/iconsSVGs/16/AliExpressColor.svg

<svg width="16" height="16" viewBox="0 0 16 16" fill="none" xmlns="http://www.w3.org/2000/svg">
<path d="M2.09375 1C1.80367 1 1.52547 1.11523 1.32035 1.32035C1.11523 1.52547 1 1.80367 1 2.09375V13.9062C1 14.1963 1.11523 14.4745 1.32035 14.6796C1.52547 14.8848 1.80367 15 2.09375 15H13.9062C14.1963 15 14.4745 14.8848 14.6796 14.6796C14.8848 14.4745 15 14.1963 15 13.9062V2.09375C15 1.80367 14.8848 1.52547 14.6796 1.32035C14.4745 1.11523 14.1963 1 13.9062 1H2.09375Z" fill="#E62E04"/>
<path d="M4.85004 5.69261C4.90363 5.91136 4.87344 6.14761 4.92616 6.37007C5.10991 6.23554 5.23241 6.01351 5.20726 5.78229C5.20354 5.36842 4.73804 5.04401 4.34844 5.18336C4.10344 5.25336 3.92232 5.4732 3.88119 5.72148C3.83219 6.00586 4.00304 6.29679 4.25701 6.42673C4.23185 6.18173 4.17301 5.92361 4.23885 5.68386C4.33947 5.42267 4.75707 5.42792 4.85004 5.69261ZM12.099 5.98923C12.1882 5.66811 11.994 5.29579 11.6755 5.19298C11.3692 5.07267 10.9901 5.22579 10.8552 5.52417C10.7047 5.80045 10.7957 6.19354 11.0708 6.35542C11.1251 6.13361 11.0851 5.89604 11.1496 5.68057C11.2524 5.42311 11.6648 5.43054 11.7586 5.69151C11.8183 5.9247 11.7643 6.1697 11.7418 6.40507C11.9286 6.34732 12.0454 6.16817 12.099 5.98923Z" fill="#B32100"/>
<path d="M11.1496 5.68057C11.0849 5.89823 11.1249 6.13382 11.0708 6.35542C10.9107 7.31792 10.2668 8.17783 9.3942 8.60899C8.95985 8.82756 8.48025 8.94112 7.99401 8.94051C7.50776 8.9399 7.02844 8.82515 6.59464 8.60549C5.73014 8.17543 5.09044 7.32229 4.92616 6.37007C4.87366 6.14739 4.90341 5.91354 4.85004 5.69261C4.75729 5.43011 4.33947 5.42245 4.23885 5.68386C4.17322 5.92579 4.23229 6.18195 4.25701 6.42673C4.44076 7.61673 5.2373 8.68555 6.31617 9.21602C6.81199 9.46131 7.35547 9.59519 7.9085 9.60827C8.46152 9.62134 9.01072 9.5133 9.51758 9.29171C10.6842 8.78792 11.5563 7.66289 11.7429 6.40421C11.7655 6.16883 11.8195 5.92361 11.7595 5.69064C11.6655 5.42968 11.2526 5.42332 11.1496 5.68057Z" fill="white"/>
<path d="M2.09375 1C1.80367 1 1.52547 1.11523 1.32035 1.32035C1.11523 1.52547 1 1.80367 1 2.09375V4.17188C1 3.88179 1.11523 3.60359 1.32035 3.39848C1.52547 3.19336 1.80367 3.07812 2.09375 3.07812H13.9062C14.1963 3.07812 14.4745 3.19336 14.6796 3.39848C14.8848 3.60359 15 3.88179 15 4.17188V2.09375C15 1.80367 14.8848 1.52547 14.6796 1.32035C14.4745 1.11523 14.1963 1 13.9062 1H2.09375Z" fill="#FF9900"/>
</svg>

<svg xmlns="http://www.w3.org/2000/svg" width="16" height="16" fill="none" viewBox="0 0 16 16"><path fill="#e62e04" d="M2.0938 1A1.0937 1.0937 0 0 0 1 2.0938v11.8124A1.0937 1.0937 0 0 0 2.0938 15h11.8124c.2901 0 .5683-.1152.7734-.3204A1.093 1.093 0 0 0 15 13.9062V2.0938A1.0935 1.0935 0 0 0 13.9062 1z"/><path fill="#b32100" d="M4.85 5.6926c.0536.2188.0234.455.0762.6775.1837-.1346.3062-.3566.281-.5878-.0037-.4139-.4692-.7383-.8588-.599-.245.07-.426.2899-.4672.5382-.049.2844.1218.5753.3758.7052-.0252-.245-.084-.503-.0181-.7428.1006-.2612.5182-.256.6111.0087m7.249.2966c.0892-.321-.105-.6934-.4235-.7962-.3063-.1203-.6854.0328-.8203.3312-.1505.2762-.0595.6693.2156.8312.0543-.2218.0143-.4594.0788-.6748.1028-.2575.5152-.25.609.011.0597.2331.0057.4781-.0168.7135.1868-.0578.3036-.237.3572-.4159"/><path fill="#fff" d="M11.1496 5.6806c-.0647.2176-.0247.4532-.0788.6748-.1601.9625-.804 1.8224-1.6766 2.2536a3.106 3.106 0 0 1-2.7996-.0035c-.8645-.43-1.5042-1.2832-1.6684-2.2354-.0525-.2227-.0228-.4566-.0762-.6775-.0927-.2625-.5105-.2701-.6111-.0087-.0657.2419-.0066.498.0181.7428.1838 1.19.9803 2.2588 2.0592 2.7893a3.793 3.793 0 0 0 3.2014.0757c1.1666-.5038 2.0387-1.6288 2.2253-2.8875.0226-.2354.0766-.4806.0166-.7136-.094-.261-.5069-.2673-.6099-.01"/><path fill="#f90" d="M2.0938 1A1.0937 1.0937 0 0 0 1 2.0938v2.078a1.0937 1.0937 0 0 1 1.0938-1.0937h11.8124A1.0937 1.0937 0 0 1 15 4.172V2.0938A1.0935 1.0935 0 0 0 13.9062 1z"/></svg>
